ui_kit/lib/assets/icons/pencil.svg

<svg width="24" height="24" viewBox="0 0 24 24" fill="none" xmlns="http://www.w3.org/2000/svg">
<path fill-rule="evenodd" clip-rule="evenodd" d="M17.4876 3.23964C17.1681 2.92012 16.6501 2.92012 16.3305 3.23964C16.011 3.55916 16.011 4.0772 16.3305 4.39672L19.6033 7.66945C19.9228 7.98897 20.4408 7.98897 20.7603 7.66945C21.0799 7.34993 21.0799 6.83188 20.7603 6.51236L17.4876 3.23964ZM15.0331 5.69422C14.7136 5.3747 14.1955 5.3747 13.876 5.69422L4.46693 15.1033C4.36625 15.204 4.29358 15.3292 4.25612 15.4666L3.02885 19.9666C2.95159 20.2498 3.03205 20.5528 3.23966 20.7604C3.44727 20.968 3.75021 21.0484 4.03348 20.9712L8.53347 19.7439C8.67084 19.7064 8.79605 19.6338 8.89674 19.5331L18.3058 10.124C18.6253 9.8045 18.6253 9.28646 18.3058 8.96694L15.0331 5.69422ZM4.98429 19.0157L5.77765 16.1067L14.4546 7.42984L16.5702 9.54548L7.89329 18.2224L4.98429 19.0157Z" fill="white"/>
</svg>

<svg xmlns="http://www.w3.org/2000/svg" width="24" height="24" fill="none" viewBox="0 0 24 24"><path fill="#fff" fill-rule="evenodd" d="M17.488 3.24a.818.818 0 0 0-1.157 1.157l3.272 3.272a.818.818 0 1 0 1.157-1.157L17.488 3.24Zm-2.455 2.454a.818.818 0 0 0-1.157 0l-9.41 9.41a.82.82 0 0 0-.21.363l-1.227 4.5a.818.818 0 0 0 1.004 1.004l4.5-1.227a.818.818 0 0 0 .364-.21l9.409-9.41a.818.818 0 0 0 0-1.157l-3.273-3.273ZM4.984 19.016l.794-2.91 8.677-8.676 2.115 2.115-8.677 8.677-2.909.794Z" clip-rule="evenodd"/></svg>
